X: 1
T: Reel Bijoux
O: Qu\'ebec
R: reel
Z: 2012 John Chambers <jc:trillian.mit.edu>
S: session taped by Paul Milde
M: 2/4
L: 1/16
K: D
ag | "D"fafd Adcd | "G"B"#"def "Em"g2gf | "A7"egec Acec | "D"defg "A7"a2ag |
y8   "D"fafd Adcd | "G"B"#"def "Em"g2gf | "A7"egec Acec | "A7"dfec [1 "D"d2 :|[2 "D"dBAF |]
|: "D"D2FA dAFA | "G"BABc "D"dBAF | "D"D2FA dAFD | "A7"E2CE A,ECE |
y2 "D"D2FA dAFA | "G"BABc defg | "D"a3f "G"gfed | "A7"cABc [1 "D"dBAF :|[2 "D"d2 |]
